X:91
T: Graf und Nonne (Die Nonne)
N: Q1155b
O: Mitteleuropa, Deutschland
N: Melodievergleich zu Q0155c., anderes Lied "Der Tod von Basel" .
N: Schlusspause ergaenzt.
R: ???
M: 2/4
L: 1/8
K: G
D | GBBA | AGG
G | BddB | A2z
G | Bddd | d2B2 |
g2e2 | d2B
d | cAGF | G2z

@@@ Tune index: 1801
